X: 5447
T: Bunch Of Green Rushes, The
R: reel
M: 4/4
K: Dmixolydian
cAGE =F3d|cAGc AddB|cAGE =F2 zg|^fdec AddB|
cAGE =F3d|cAGc AD D2|cAGE =F2 zg|^fdec AddB||
AddB cAGE|=FGAc AEAc|AddB cAGA|cdeg aged|
AddB cAGE|=FGAc Ad d2|AddB cAGE|cdeg eA A2||
d3^f afdf|c3e gece|d3f afdf|cAGc Addc|
d3f afdf|c3B cdeg|afge fdec|dcAG Add2||

